dist/img/step3_icon.svg

<svg width="101" height="100" viewBox="0 0 101 100" fill="none" xmlns="http://www.w3.org/2000/svg">
<path d="M73.8058 1.00655C68.2043 2.4661 64.1017 6.41085 62.3266 12.0321C61.9321 13.2944 61.873 13.9256 61.873 16.2727C61.873 19.606 62.1491 20.75 63.5692 23.6494C64.4173 25.3851 64.8315 25.9571 66.2714 27.4166C67.2181 28.3634 68.2437 29.3101 68.579 29.5271L69.151 29.9413L67.3956 30.8288C62.6027 33.2549 59.0525 36.8643 56.7448 41.6572C54.9697 45.3849 54.4766 48.0279 54.4766 54.0634C54.4766 58.5604 54.5752 59.0732 55.5614 59.5269C55.9558 59.7044 61.3996 59.7635 77.9281 59.7635H99.782L100.295 59.2902C100.571 59.0338 100.867 58.5801 100.946 58.2843C101.005 58.0081 101.025 55.5821 100.965 52.8997C100.887 48.521 100.827 47.8307 100.374 46.0556C99.1705 41.381 97.1587 37.9294 93.7071 34.6158C91.853 32.8407 89.5848 31.2628 87.6913 30.4344C87.001 30.1385 86.429 29.8426 86.429 29.7835C86.429 29.7243 86.6854 29.5271 86.9813 29.3496C87.928 28.7776 90.1962 26.4107 91.0641 25.0498C97.0798 15.7599 92.2081 3.57063 81.4389 0.986824C79.2496 0.454281 75.8571 0.474007 73.8058 1.00655ZM80.1569 4.75406C80.7289 4.8724 81.9517 5.32605 82.8787 5.75997C85.5809 7.06173 87.9477 9.70471 88.8748 12.4858C89.4665 14.2214 89.6637 16.2135 89.4073 17.8703C88.2041 26.036 79.8018 30.4935 72.4252 26.9038C70.4725 25.9571 68.0662 23.5705 67.1589 21.677C66.1333 19.606 65.8572 18.1859 65.9755 15.7796C66.0938 13.2353 66.5672 11.7757 67.9281 9.74416C70.5514 5.81914 75.5218 3.80732 80.1569 4.75406ZM82.5237 32.8998C87.7111 34.3002 92.287 37.9885 94.6538 42.7025C96.1923 45.7203 96.6656 47.8701 96.8234 52.308L96.9418 55.6216H77.79H58.6185V52.6038C58.6185 50.9668 58.7172 49.0338 58.8355 48.3238C59.1314 46.3514 60.2359 43.3731 61.301 41.5585C62.6027 39.3692 65.6402 36.3318 67.8295 35.03C69.5455 34.0241 72.5632 32.8801 74.3975 32.5645C76.1924 32.2489 80.7683 32.4462 82.5237 32.8998Z" fill="#69DBEF"/>
<path d="M42.7402 7.35761C42.2076 7.89016 42.0498 8.20574 42.0498 8.77773C42.0498 9.44833 42.2273 9.70474 43.7658 11.2629L45.4818 13.0183H42.4246C40.7481 13.0183 38.6376 13.1169 37.7303 13.2156C29.7817 14.2215 23.3912 20.2964 22.0302 28.1464C21.8724 29.0734 21.7344 30.2371 21.7344 30.7105C21.7344 32.2687 22.4839 33.1168 23.8645 33.1365C24.5549 33.1365 24.831 33.0182 25.2846 32.5843C25.7383 32.1109 25.8566 31.7953 25.975 30.6513C26.1722 28.6198 26.4483 27.2589 26.9809 25.9571C28.4602 22.3082 31.5962 19.3694 35.4424 18.0282C36.9414 17.4956 37.2175 17.4759 41.2609 17.397L45.5015 17.3181L43.7855 19.0932C42.1682 20.75 42.0498 20.9078 42.0498 21.677C42.0498 22.8999 42.8585 23.6691 44.1405 23.6691H45.0676L48.4995 20.2569C50.393 18.4029 52.0695 16.6278 52.2273 16.3319C52.3851 16.0361 52.5034 15.4641 52.5034 15.0696C52.5034 14.3595 52.2864 14.1031 48.7953 10.5923C45.3831 7.1801 45.0281 6.86452 44.2589 6.7659C43.5094 6.66728 43.3713 6.72646 42.7402 7.35761Z" fill="#69DBEF"/>
<path d="M19.3687 41.2233C13.8461 42.6631 9.46739 46.9037 7.88949 52.3869C7.29778 54.4184 7.25833 58.5604 7.8106 60.5525C8.79679 64.162 10.9861 67.3572 14.0433 69.6452L14.7336 70.158L12.9585 71.0653C7.41612 73.8463 3.21497 78.6392 1.32149 84.2999C0.335304 87.2387 0.216961 88.1855 0.0986187 93.6292L0 98.7969L0.591712 99.4083L1.18342 100H23.1754C45.049 100 45.1476 100 45.6604 99.5858C45.9563 99.3688 46.2916 98.8166 46.41 98.3629C46.7255 97.219 46.5086 89.7831 46.0944 87.6135C44.7137 80.3552 39.8222 73.9844 33.2739 70.868L31.8144 70.1777L33.2542 69.014C35.838 66.943 37.9682 63.59 38.7966 60.2567C39.2502 58.4618 39.27 55.0299 38.8163 53.1759C37.3765 47.1404 32.7414 42.5645 26.6468 41.1247C24.8322 40.7105 21.2227 40.7499 19.3687 41.2233ZM26.8637 45.4836C29.8223 46.4106 32.3864 48.6591 33.7473 51.5388C34.6546 53.452 34.9505 54.7143 34.9505 56.7656C34.9505 62.0121 31.2227 66.7852 26.0748 68.1462C24.6547 68.5209 21.7356 68.5209 20.276 68.1462C16.0551 67.0416 12.4851 63.2941 11.5778 59.0338C9.98021 51.5388 16.2524 44.3593 23.9052 44.9116C24.7138 44.9708 26.0551 45.2272 26.8637 45.4836ZM27.3371 73.0968C33.1359 74.3986 38.4416 78.797 40.6703 84.1618C41.834 86.9626 42.0905 88.3235 42.1891 92.3669L42.2877 96.0553L23.1951 96.0158L4.08281 95.9566L4.02364 93.787C3.9053 89.4478 4.59563 86.0356 6.25242 82.8995C9.15181 77.3966 14.5561 73.6096 20.6508 72.801C22.4259 72.5643 25.5225 72.7024 27.3371 73.0968Z" fill="#69DBEF"/>
<path d="M81.8931 65.4243C80.611 65.8188 80.1179 66.588 80.1179 68.2053C80.1179 68.7379 79.9404 69.8621 79.7235 70.73C78.4809 75.5426 75.2462 79.0139 70.4533 80.6904C69.3291 81.0849 68.6782 81.1441 64.9307 81.223L60.6901 81.3019L62.4258 79.507C63.9642 77.9094 64.1417 77.653 64.1417 76.9824C64.1417 76.5682 64.0037 76.0159 63.8261 75.7595C63.4119 75.1875 62.4258 74.7536 61.7551 74.8917C61.4001 74.9508 59.9406 76.2921 57.4554 78.7772C52.4258 83.8265 52.4258 83.0573 57.3962 88.008C59.7236 90.3354 61.2818 91.7357 61.6368 91.8146C62.978 92.1499 64.1417 91.2229 64.1417 89.7831C64.1417 88.935 64.0628 88.8166 62.4455 87.1796L60.7492 85.4439L65.0687 85.365C70.0588 85.2466 71.3409 85.0099 74.3389 83.5307C78.3823 81.5386 81.6169 78.008 83.1751 73.8858C84.1416 71.3414 84.6347 67.8503 84.181 66.7852C83.7471 65.7793 82.7215 65.1679 81.8931 65.4243Z" fill="#69DBEF"/>
</svg>

<svg width="101" height="100" fill="none" xmlns="http://www.w3.org/2000/svg"><path d="M73.806 1.007c-5.602 1.46-9.704 5.404-11.48 11.025-.394 1.262-.453 1.894-.453 4.24 0 3.334.276 4.478 1.696 7.377.848 1.736 1.263 2.308 2.702 3.768.947.946 1.973 1.893 2.308 2.11l.572.414-1.755.888c-4.793 2.426-8.343 6.035-10.651 10.828-1.775 3.728-2.268 6.37-2.268 12.406 0 4.497.098 5.01 1.084 5.464.395.177 5.839.236 22.367.236h21.854l.513-.473c.276-.256.572-.71.651-1.006.059-.276.079-2.702.019-5.384-.078-4.379-.138-5.07-.591-6.844-1.203-4.675-3.215-8.127-6.667-11.44-1.854-1.775-4.122-3.353-6.016-4.182-.69-.296-1.262-.591-1.262-.65 0-.06.256-.257.552-.434.947-.572 3.215-2.94 4.083-4.3A15.776 15.776 0 0081.44.987c-2.19-.533-5.582-.513-7.633.02zm6.35 3.747c.573.118 1.796.572 2.723 1.006 2.702 1.302 5.069 3.945 5.996 6.726.591 1.735.789 3.727.532 5.384-1.203 8.166-9.605 12.623-16.982 9.034-1.953-.947-4.359-3.334-5.266-5.227-1.026-2.071-1.302-3.491-1.184-5.897.119-2.545.592-4.004 1.953-6.036 2.623-3.925 7.594-5.937 12.229-4.99zM82.525 32.9c5.187 1.4 9.763 5.089 12.13 9.803 1.538 3.017 2.012 5.167 2.17 9.605l.118 3.314H58.618v-3.018c0-1.637.1-3.57.218-4.28.295-1.973 1.4-4.95 2.465-6.765 1.302-2.19 4.34-5.227 6.528-6.529 1.717-1.006 4.734-2.15 6.569-2.465 1.794-.316 6.37-.119 8.126.335zM42.74 7.358c-.532.532-.69.848-.69 1.42 0 .67.177.927 1.716 2.485l1.716 1.755h-3.057c-1.677 0-3.787.099-4.695.198-7.948 1.006-14.339 7.08-15.7 14.93-.158.927-.296 2.091-.296 2.564 0 1.559.75 2.407 2.13 2.426.69 0 .967-.118 1.42-.552.454-.473.573-.789.691-1.933.197-2.031.473-3.392 1.006-4.694 1.48-3.649 4.615-6.588 8.461-7.929 1.5-.532 1.776-.552 5.819-.631l4.24-.079-1.715 1.775c-1.618 1.657-1.736 1.815-1.736 2.584 0 1.223.809 1.992 2.09 1.992h.928l3.431-3.412c1.894-1.854 3.57-3.63 3.728-3.925.158-.296.276-.868.276-1.262 0-.71-.217-.967-3.708-4.478-3.412-3.412-3.767-3.727-4.536-3.826-.75-.099-.888-.04-1.519.592zM19.369 41.223c-5.523 1.44-9.902 5.68-11.48 11.164-.591 2.031-.63 6.173-.078 8.166.986 3.609 3.175 6.804 6.232 9.092l.69.513-1.774.907C7.416 73.846 3.215 78.64 1.32 84.3.335 87.239.217 88.186.1 93.63L0 98.796l.592.611.591.592h21.992c21.874 0 21.973 0 22.485-.414.296-.217.632-.77.75-1.223.316-1.144.099-8.58-.316-10.75-1.38-7.258-6.272-13.629-12.82-16.745l-1.46-.69 1.44-1.164c2.584-2.071 4.714-5.424 5.543-8.757.453-1.795.473-5.227.02-7.081-1.44-6.036-6.076-10.611-12.17-12.051-1.815-.414-5.424-.375-7.278.098zm7.495 4.26c2.958.928 5.522 3.176 6.883 6.056.908 1.913 1.203 3.175 1.203 5.227 0 5.246-3.727 10.02-8.875 11.38-1.42.375-4.34.375-5.799 0-4.22-1.104-7.79-4.852-8.698-9.112-1.598-7.495 4.674-14.675 12.327-14.122.809.059 2.15.315 2.959.572zm.473 27.614c5.799 1.302 11.105 5.7 13.333 11.065 1.164 2.8 1.42 4.161 1.52 8.205l.098 3.688-19.093-.04-19.112-.058-.06-2.17c-.118-4.34.573-7.751 2.23-10.888 2.899-5.502 8.303-9.29 14.398-10.098 1.775-.237 4.872-.099 6.686.296zm54.556-7.673c-1.282.395-1.775 1.164-1.775 2.781 0 .533-.178 1.657-.394 2.525-1.243 4.813-4.478 8.284-9.27 9.96-1.125.395-1.776.454-5.523.533l-4.24.079 1.735-1.795c1.538-1.598 1.716-1.854 1.716-2.525 0-.414-.138-.966-.316-1.222-.414-.573-1.4-1.006-2.07-.868-.356.059-1.815 1.4-4.3 3.885-5.03 5.05-5.03 4.28-.06 9.231 2.328 2.327 3.886 3.728 4.24 3.807 1.342.335 2.506-.592 2.506-2.032 0-.848-.08-.966-1.696-2.603l-1.697-1.736 4.32-.079c4.99-.118 6.272-.355 9.27-1.834 4.043-1.992 7.278-5.523 8.836-9.645.967-2.545 1.46-6.036 1.006-7.1-.434-1.007-1.46-1.618-2.288-1.362z" fill="#69DBEF"/></svg>
